X:199
T:Janet Laskey's Reel
T:Fifty Flamingoes
C:Gordon Fisch
N:Composed for Janet Laskey on her 50th Birthday
M:4/4
L:1/8
R:reel
K:D
| Dd /c/B/A efd2 | G2 /G/A/B A2 /A/F/E | Dd /c/B/A efd2 | GB /A/G/F E2 FE ::
 G B/B/d/d/B/B/ gd B/B/d/d/ | Acdc Acdc | G B/B/d/d/B/B/ gd B/B/d/d/  |1 Acdc a2a2 :|2
Aa e/d/c/A/ A2FE |]
